!!!COM: Mozart, Wolfgang Amadeus
!!!CDT: 1756/01/27/-1791/12/05/
!!!CNT: German
!!!OTL: Piano Sonata No. 1 in C major
!!!SCT1: K<sup>1</sup> 279
!!!SCT2: K<sup>6</sup> 189d
!!!OMV: Mvmt. 1
!!!OMD: Allegro
!!!ODT: 1774///
**kern	**kern	**dynam
*staff2	*staff1	*staff1
*>[A,A,B]	*>[A,A,B]	*>[A,A,B]
*>norep[A,B]	*>norep[A,B]	*>norep[A,B]
*>A	*>A	*>A
*clefF4	*clefG2	*clefG2
*k[]	*k[]	*k[]
*C:	*C:	*C:
*M4/4	*M4/4	*M4/4
*met(c)	*met(c)	*met(c)
*MM120	*MM120	*MM120
=1-	=1-	=1-
(16C\LL	4e/ 4g/ 4cc/	f
16c\	.	.
16B\	.	.
16c\JJ	.	.
8C/)	8r	.
8r	(16cc\LL	.
.	16b\JJ	.
2r	16dd\LL	.
.	16cc\	.
.	16ee\	.
.	16dd\JJ	.
.	16ff\LL	.
.	16ee\	.
.	16gg\	.
.	16ff\JJ)	.
=2	=2	=2
4FF/ 4F/	4a\ 4dd\ 4ff\ 4aa\	.
4r	(16gg\LL	.
.	16ff\	.
.	16ee\	.
.	16dd\JJ	.
8r	16cc\LL	.
.	16b\	.
(8E\L	16cc\	.
.	16ee\JJ)	.
8F\	(16dd\LL	.
.	16ff\)	.
8G\J)	(16b\	.
.	16dd\JJ)	.
=3	=3	=3
(16C\LL	4e/ 4g/ 4cc/	.
16c\	.	.
16B\	.	.
16c\JJ	.	.
8C/)	8r	.
8r	(16cc\LL	.
.	16b\JJ	.
2r	16dd\LL	.
.	16cc\	.
.	16ee\	.
.	16dd\JJ	.
.	16ff\LL	.
.	16ee\	.
.	16gg\	.
.	16ff\JJ)	.
=4	=4	=4
4FF/ 4F/	4a\ 4dd\ 4ff\ 4aa\	.
4r	(16gg\LL	.
.	16ff\	.
.	16ee\	.
.	16dd\JJ	.
8r	16cc\LL	.
.	16b\	.
(8E\L	16cc\	.
.	16ee\JJ)	.
8F\	(16dd\LL	.
.	16ff\)	.
8G\J)	(16b\	.
.	16dd\JJ)	.
*clefG2	*	*
=5	=5	=5
16c/LL	8cc\L	.
16g/	.	.
.	32ddQ/	.
16e/	(16cc\L	.
16g/JJ	16b\JJ	.
16c/LL	8cc\L)	.
16g/	.	.
16e/	8ee'\J	.
16g/JJ	.	.
16B/LL	(4cc#\	.
16g/	.	.
16d/	.	.
16g/JJ	.	.
16B/LL	8dd\)	.
16g/	.	.
16d/	8r	.
16g/JJ	.	.
=6	=6	=6
16B/LL	8r	.
16g/	.	.
.	32eeQ/	.
16d/	(16dd\LL	.
16g/JJ	16cc#\JJ	.
16B/LL	8dd\L)	.
16g/	.	.
16d/	8ff'\J	.
16g/JJ	.	.
16c/LL	(4dd#'\	.
16g/	.	.
16e/	.	.
16g/JJ	.	.
16c/LL	8ee\)	.
16g/	.	.
16e/	8r	.
16g/JJ	.	.
=7	=7	=7
16c/LL	8r	.
16g/	.	.
16e/	(8gg\L	.
16g/JJ	.	.
16c/LL	8ccc\)	.
16g/	.	.
16e/	8bb-'\J	.
16g/JJ	.	.
16c/LL	(4gg#\	.
16a/	.	.
16f/	.	.
16a/JJ	.	.
16c/LL	8aa\)	.
16a/	.	.
16f/	8r	.
16a/JJ	.	.
=8	=8	=8
.	(32aaQ/LLL	.
.	32bbnQ/JJJ	.
16c/LL	(4ccc\)	.
16a/	.	.
16f/	.	.
16a/JJ	.	.
16c/LL	16bb\LL	.
16a/	16aa\	.
16f/	16gg\	.
16a/JJ	16ff\JJ)	.
16c/LL	(4ff#\	.
16g/	.	.
16e/	.	.
16g/JJ	.	.
16c/LL	8gg\)	.
16g/	.	.
16e/	8r	.
16g/JJ	.	.
*clefF4	*	*
=9	=9	=9
16E'\LL	4r	.
16G'\	.	.
16c'\	.	.
16e'\JJ	.	.
4r	16g'\LL	.
.	16cc'\	.
.	16ee'\	.
.	16gg'\JJ	.
16F'\LL	4r	.
16A'\	.	.
16c'\	.	.
16f'\JJ	.	.
4r	16a'\LL	.
.	16cc\	.
.	16ff'\	.
.	16aa'\JJ	.
=10	=10	=10
8r	(16aa\LL	.
.	16gg\	.
8G\ (8c\L	16ff\	.
.	16ee\JJ)	.
8G\ 8B\	(16ee\LL	.
.	16dd\	.
8G\ 8d\J)	16ee\	.
.	16ff\JJ)	.
4G#\ (4d\	(4ff\	.
8A\ 8c\)	8ee\)	.
8r	8r	.
=11	=11	=11
(16E\LL	4r	.
16Gn\	.	.
16c\	.	.
16e\JJ)	.	.
4r	(16g\LL	.
.	16cc\	.
.	16ee\	.
.	16gg\JJ)	.
(16F\LL	4r	.
16A\	.	.
16c\	.	.
16f\JJ)	.	.
4r	(16a\LL	.
.	16cc\	.
.	16ff\	.
.	16aa\JJ)	.
=12	=12	=12
8r	(16aa\LL	.
.	16gg\	.
8G\ 8c\L	16ff\	.
.	16ee\JJ	.
8G\ 8B\	(16ee\LL)	.
.	16dd\	.
8G\ 8f\J	16cc\	.
.	16b\JJ	.
16c\ 16e\	4cc\)	.
(16c\LL	.	.
16B\	.	.
16c\JJ)	.	.
(16BB/LL	[4g\ [4b-\ [4ee\	f
16C/	.	.
16BB/	.	.
16C/JJ)	.	.
=13	=13	=13
8CC/	8g\] 8b-\] 8ee\L]	p
8r	8a\ 8ff\J	.
4r	8f/ 8a/L	.
.	8d/ 8bn/J	.
.	16aQ/LL	.
.	16bQ/JJ	.
(16B\LL	4e/ 4cc/	.
16c\	.	.
16B\	.	.
16c\JJ)	.	.
(16BB/LL	[4g\ [4b-\ [4ee\	f
16C/	.	.
16BB/	.	.
16C/JJ)	.	.
=14	=14	=14
8CC/	8g\] 8b-\] 8ee\L]	p
8r	8a\ 8ff\J	.
4r	8f/ 8a/L	.
.	8d/ 8bn/J	.
.	16aQ/LL	.
.	16bQ/JJ	.
8e\L	(16cc\LL	f
.	16b\	.
8G\	16cc\	.
.	16ee\JJ	.
8B\	16dd\LL	.
.	16cc\	.
8G\J	16dd\	.
.	16ff\JJ	.
=15	=15	=15
*^	*	*
2.r	8c\L	16ee\LL	.
.	.	16dd\	.
.	8G\	16ee\	.
.	.	16gg\JJ	.
.	8d\	16ff\LL	.
.	.	16ee\	.
.	8G\J	16ff\	.
.	.	16aa\JJ	.
.	4e\	16gg\LL)	.
.	.	(16ccc\	.
.	.	16eee\	.
.	.	16bb\JJ	.
8r	8r	16ccc\LL	.
.	.	16gg\	.
8d/	8F\	16aa\	.
.	.	16ff\JJ)	.
=16	=16	=16	=16
(8c/L	4G\	(8ee\L	.
8B/J)	.	8dd\J)	.
2.r	4r	4r	.
.	.	(32cc#Q/	.
.	2r	4dd\)	.
.	.	(32cc#Q/	.
.	.	4dd\)	.
*v	*v	*	*
=17	=17	=17
.	(32bQ/LLL	.
.	32ddQ/	.
.	32gg#Q/JJJ	.
16r	[2bb\)	.
(16EE/LL	.	.
16GG#/	.	.
16BB/JJ	.	.
16E\LL	.	.
16G#\	.	.
16B\	.	.
16e\JJ	.	.
4E\)	(16bb\LL]	.
.	16aa\	.
.	16gg#\	.
.	16ffn\JJ	.
8r	16ee\LL	.
.	16dd\	.
8E\ 8G#\	16cc\	.
.	16b\JJ)	.
=18	=18	=18
4AA\ 4A\	(16dd\LL	.
.	16cc\	.
.	16b\	.
.	16cc\JJ	.
4r	16b\LL	.
.	16cc\	.
.	16dd\	.
.	16cc\JJ	.
.	32bQ/)	.
2r	4cc\	.
.	32bQ/	.
.	4cc\	.
=19	=19	=19
.	32aQ/LLL	.
.	32ccQ/	.
.	(32ff#Q/JJJ	.
16r	2aa\	.
(16DD/LL	.	.
16FF#/	.	.
16AA/JJ	.	.
16D\LL	.	.
16F#\	.	.
16A\	.	.
16d\JJ	.	.
4D\)	(16aa\LL)	.
.	16ggn\	.
.	16ff#\	.
.	16ee\JJ	.
8r	16dd\LL	.
.	16cc\	.
8D\ 8F#\	16b\	.
.	16a\JJ)	.
*clefG2	*	*
=20	=20	=20
(16G/LL	4b\	p
16g/	.	.
16f#/	.	.
16g/JJ	.	.
16B/LL	8dd'\L	.
16g/	.	.
16f#/	8dd'\J	.
16g/JJ	.	.
16c/LL	(8.ee\L	.
16g/	.	.
16f#/	.	.
16g/JJ	16ff#\Jk)	.
16c/LL	(16aa\LL	.
16g/	16gg\	.
16f#/	16ff#\	.
16g/JJ	16ee\JJ	.
=21	=21	=21
16B/LL	8dd\)	.
16g/	.	.
16f#/	8r	.
16g/JJ	.	.
16B/LL	(16dd\LL	.
16g/	16b\	.
16f#/	16dd\	.
16g/JJ	16b\JJ)	.
16c/LL	(8.ee\L	.
16g/	.	.
16f#/	.	.
16g/JJ	16ff#\Jk)	.
16c/LL	(16aa\LL	.
16g/	16gg\	.
16f#/	16ff#\	.
16g/JJ	16ee\JJ	.
=22	=22	=22
4B/)	8dd'\)	.
.	(16bb\LL	.
.	16aa\JJ	.
8r	16gg\LL	.
.	16ff#\	.
(8g#/	16ee\	.
.	16dd\JJ)	.
4a/)	8cc\	.
.	16bQ/LL	.
.	16ccQ/JJ	.
.	(16aa\LL	.
.	16gg\JJ	.
8r	16ff#\LL	.
.	16ee\	.
(8f#/	16dd\	.
.	16cc\JJ)	.
=23	=23	=23
4gn/)	8b\	.
.	16aQ/LL	.
.	16bQ/JJ	.
.	(16gg\LL	.
.	16ff#\JJ	.
8r	16ee\LL	.
.	16dd\	.
(8e/	16cc\	.
.	16b\JJ)	.
4c/)	8a/	.
.	16g#Q/LL	.
.	16aQ/JJ	.
.	(16ee\LL	.
.	16dd\JJ	.
8r	16cc\LL	.
.	16b\	.
(8c#/	16a\	.
.	16gn\JJ	.
=24	=24	=24
4d/)	16f#'/)	.
.	(16dd\LL	f
.	16bb\	.
.	16aa\JJ	.
8r	16gg\LL	.
.	16ff#\	.
(8g#/	16ee\	.
.	16dd\JJ)	.
4a/)	(16dd\LL	.
.	16cc#\)	.
.	16aa'\	.
.	16gg'\JJ	.
8r	16ff#'\LL	.
.	16ee'\	.
(8f#/	16dd'\	.
.	16ccn'\JJ	.
=25	=25	=25
4gn/)	(16cc\LL	.
.	16b\)	.
.	16gg'\	.
.	16ff#'\JJ	.
8r	16ee'\LL	p
.	16dd'\	.
8e/	16cc'\	.
.	16b'\JJ	.
(16c/LL	4a/	.
16g/	.	.
16f#/	.	.
16g/JJ	.	.
16d/LL	(8.b/L	.
16g/	.	.
16f#/	.	.
16g/JJ	32a/LL	.
.	32b/JJJ	.
=26	=26	=26
16e/LL	4.cc\	.
16g/	.	.
16f#/	.	.
16g/JJ	.	.
16d/LL	.	.
16g/	.	.
16f#/	8b\)	.
16g/JJ	.	.
16c/LL	8a'/L	.
16g/	.	.
.	32g#Q/	.
16f#/	8a'/	.
16g/JJ	.	.
16d/LL	8b'/	.
16g/	.	.
.	a#Q/	.
16f#/	8b'/J	.
16g/JJ	.	.
=27	=27	=27
.	(32bQ/LLL	.
.	32ddQ/JJJ	.
16e/LL	(4.cc\)	.
16g/	.	.
16f#/	.	.
16g/JJ	.	.
16d/LL	.	.
16g/	.	.
16f#/	8b\)	.
16g/JJ)	.	.
.	32g#Q/	.
8r	4a/	.
(8c/ 8e/L	.	.
8B/ 8d#/	4r	.
8c/) 8e/J	.	.
=28	=28	=28
.	32bQ/	.
8r	4cc\	f
(8c/ 8e/L	.	.
8B/ 8d#/	4r	.
8c/) 8e/J	.	.
.	32dd#Q/	.
8r	4ee\	p
(8c/ 8e/L	.	.
8B/ 8d#/	4r	.
8c/) 8e/J	.	.
=29	=29	=29
.	32gQ/	.
1r	8a\L	.
.	32bQ/	.
.	8cc\	.
.	32ddQ/	.
.	8ee\	.
.	32ggQ/	.
.	8aa\J	.
.	8ccc\L	.
.	32ggQ/	.
.	8aa\	.
.	32ddQ/	.
.	8ee\	.
.	32bQ/	.
.	8cc\J	.
*clefF4	*	*
=30	=30	=30
.	(32bQ/LLL	.
.	32ccQ/JJJ	.
(16D\LL	(4ddn\)	f
16B\	.	.
16G\	.	.
16B\JJ	.	.
16D\LL	16cc/LL	.
16B\	16b/	.
16G\	16a/	.
16B\JJ	16g/JJ)	.
16D\LL	2a/	.
16c\	.	.
16F#\	.	.
16c\JJ	.	.
16D\LL	.	.
16c\	.	.
16F#\	.	.
16c\JJ	.	.
=31	=31	=31
.	32gQ/LLL	.
.	32aQ/JJJ	.
16G\LL	8g\L	.
16e\	.	.
16B\	16gg'\L	.
16d\JJ)	16gg'\JJ	.
8G\	(16gg\LL	.
.	16dd\	.
8r	16b\	.
.	16g\JJ)	.
(16F#\LL	8a\L	.
16d\	.	.
16A\	16aa'\L	.
16d\JJ	16aa'\JJ	.
8F#\)	(16aa\LL	.
.	16ff#\	.
8r	16dd\	.
.	16a\JJ)	.
=32	=32	=32
(16G\LL	8b\L	.
16d\	.	.
16B\	16bb'\L	.
16d\JJ	16bb'\JJ	.
8G\)	(16bb\LL	.
.	16gg\	.
8r	16dd\	.
.	16b\JJ)	.
4C\ 4E\ 4A\	(16dd#\LL	.
.	16ee\)	.
.	16cc'\	.
.	16a'\JJ	.
4D\ 4A\ 4c\	(16b\LL	.
.	16cc\)	.
.	16a'\	.
.	16f#'\JJ	.
=33	=33	=33
8G\ 8B\	16g'\LL	.
.	(16ff#\	.
8r	16gg\	.
.	16ff#\JJ	.
(16GG\LL	16gg\LL)	.
16G\	16dd\	.
16F#\	16b'\	.
16G\JJ	16g'\JJ	.
8F#\)	16a'\LL	.
.	(16gg#\	.
8r	16aa\	.
.	16gg#\JJ	.
(16FF#\LL	16aa\LL)	.
16F#\	16ff#'\	.
16E\	16dd'\	.
16F#\JJ	16a'\JJ	.
=34	=34	=34
8G\)	16b'\LL	.
.	(16aa#\	.
8r	16bb\	.
.	16aa#\JJ	.
(16GG\LL	16bb\LL)	.
16G\	16ggn'\	.
16F#\	16dd\	.
16G\JJ)	16b'\JJ	.
4C\ 4E\ 4A\	(16dd#\LL	.
.	16ee\)	.
.	16cc'\	.
.	16an'\JJ	.
4D\ 4A\ 4c\	(16b\LL	.
.	16cc\)	.
.	16a'\	.
.	16f#'\JJ	.
=35	=35	=35
4G\ 4B\	16g'\LL	.
.	(16gg\	.
.	16bb\)	.
.	16aa'\JJ	.
4r	16gg'\LL	.
.	16ff#'\	.
.	16ee'\	.
.	16dd'\JJ	.
2r	16cc'/LL	.
.	16b'/	.
.	16a'/	.
.	16g'/JJ	.
.	16f#'/LL	.
.	16e'/	.
.	16d'/	.
.	16c#'/JJ	.
=36	=36	=36
4r	[2cn/	f
4AA\ 4A\	.	.
4FF#/ 4F#/	(16c/LL]	p
.	16d/	.
.	16e/	.
.	16d/JJ	.
4DD/ 4D/	16f#/LL	.
.	16e/	.
.	16d/	.
.	16c/JJ)	.
=37	=37	=37
(16GG\LL	(2A/ 2c/	f
16G\	.	.
16F#\	.	.
16G\JJ	.	.
16F#\LL	.	.
16G\	.	.
16F#\	.	.
16G\JJ)	.	.
4GG/	16G/) 16B/	.
.	(16g/LL	.
.	16f#/	.
.	16g/JJ)	.
4r	16d'/LL	.
.	(16dd/	.
.	16cc#/	.
.	16dd/JJ)	.
=38	=38	=38
1r	16b'\LL	.
.	(16gg\	.
.	16ff#\	.
.	16gg\JJ)	.
.	16dd'\LL	.
.	(16bb\	.
.	16aa\	.
.	16bb\JJ)	.
.	8gg\	.
.	8r	.
.	4r	.
=39:|!	=39:|!	=39:|!
*>B	*>B	*>B
(16GG\LL	4B-/ 4d/ 4g/	f
16G\	.	.
16F#\	.	.
16G\JJ	.	.
8GG/)	8r	.
8r	(16g/LL	.
.	16d/JJ	.
2r	16b-\LL	.
.	16g\	.
.	16dd\	.
.	16b-\JJ	.
.	16gg\LL	.
.	16dd\	.
.	16b-\	.
.	16g\JJ)	.
=40	=40	=40
(16GG\LL	4e/ 4a/ 4cc#/	.
16G\	.	.
16F#\	.	.
16G\JJ	.	.
8GG/)	8r	.
8r	(16a/LL	.
.	16e/JJ	.
2r	16cc#\LL	.
.	16a\	.
.	16ee\	.
.	16cc#\JJ	.
.	16aa\LL	.
.	16ee\	.
.	16cc#\	.
.	16a\JJ)	.
=41	=41	=41
(16FFn/LL	4fn/ 4a/ 4dd/	.
16Fn/	.	.
16E/	.	.
16F/JJ	.	.
8FF/)	8r	.
8r	(16a/LL	.
.	16f/JJ	.
2r	16dd\LL	.
.	16a\	.
.	16ff\	.
.	16dd\JJ	.
.	16aa\LL	.
.	16ff\	.
.	16dd\	.
.	16a\JJ)	.
=42	=42	=42
(16FF/LL	4d/ 4g/ 4bn/	.
16F/	.	.
16E/	.	.
16F/JJ	.	.
8FF/)	8r	.
8r	(16g/LL	.
.	16d/JJ	.
2r	16b\LL	.
.	16g\	.
.	16dd\	.
.	16b\JJ	.
.	16gg\LL	.
.	16dd\	.
.	16b\	.
.	16g\JJ)	.
=43	=43	=43
(16EE/LL	4e/ 4g/ 4cc/	.
16E/	.	.
16D/	.	.
16E/JJ	.	.
8EE/)	8r	.
8r	(16g/LL	.
.	16e/JJ	.
2r	16cc\LL	.
.	16g\	.
.	16ee\	.
.	16cc\JJ	.
.	16gg\LL	.
.	16ee\	.
.	16cc\	.
.	16g\JJ)	.
=44	=44	=44
(16DD/LL	4d/ 4f/ 4b-/	.
16D/	.	.
16C#/	.	.
16D/JJ	.	.
8DD/)	8r	.
8r	16f/LL	.
.	(16d/JJ	.
2r	16b-\LL	.
.	16f\	.
.	16dd\	.
.	16b-\JJ	.
.	16ff\LL	.
.	16dd\	.
.	16bb-\	.
.	16aa\JJ	.
=45	=45	=45
4EE/ 4E/	16gg#\LL	.
.	16bbn\	.
.	16ff\	.
.	16bb\JJ	.
8r	16ee\LL	.
.	16bb\	.
8G#\	16dd\	.
.	16bb\JJ	.
(16A\LL	4cc\)	.
16c\	.	.
16Gn\	.	.
16c\JJ	.	.
16F#\LL	8aa\L	.
16c\	.	.
16E-\	8ggn\J	.
16c\JJ	.	.
=46	=46	=46
.	16ff#Q/LL	.
.	16ggQ/JJ	.
4D\)	(16ff#\LL	.
.	16aa\	.
.	16ee-\	.
.	16aa\JJ	.
8r	16dd\LL	.
.	16aa\	.
8F#\	16cc\	.
.	16aa\JJ	.
(16G\LL	4b-\)	.
16B-\	.	.
16Fn\	.	.
16B-\JJ	.	.
16En\LL	8gg\L	.
16B-\	.	.
16D\	8ffn\J	.
16B-\JJ	.	.
=47	=47	=47
.	16eenQ/LL	.
.	16ffQ/JJ	.
4C/)	(16een\LL	.
.	16gg\	.
.	16dd\	.
.	16gg\JJ	.
8r	16cc\LL	.
.	16gg\	.
8E\	16b-\	.
.	16gg\JJ	.
16F\	4a/)	.
*clefG2	*	*
(16c/LL	.	.
16B-/	.	.
16A/JJ	.	.
16B-/LL	4r	.
16c/	.	.
16d/	.	.
16e/JJ)	.	.
=48	=48	=48
(16f/LL	8r	.
16cc/	.	.
16a/	(16aa\LL	p
16cc/JJ	16bbn\JJ)	.
16f/LL	8ccc'\L	.
16cc/	.	.
16a/	8ccc'\J	.
16cc/JJ	.	.
16e/LL	(4ccc\	.
16cc/	.	.
16g/	.	.
16cc/JJ	.	.
16e/LL	8gg\)	.
16cc/	.	.
16g/	8r	.
16cc/JJ	.	.
=49	=49	=49
16d/LL	(8.ff\L	f
16bn/	.	.
16g/	.	.
16b/JJ	32ee\LL	.
.	32ff\JJJ	.
16d/LL	8gg\L)	.
16b/	.	.
16g/	8ff\J	.
16b/JJ	.	.
16c/LL	(4dd#\	.
16cc/	.	.
16g/	.	.
16cc/JJ	.	.
16c/LL	8ee\)	.
16cc/	.	.
16g/	8r	.
16cc/JJ	.	.
=50	=50	=50
16c/LL	8r	.
16g/	.	.
16e/	(16ee\LL	p
16g/JJ	16ff\JJ)	.
16c/LL	8gg\L	.
16g/	.	.
16e/	8gg\J	.
16g/JJ	.	.
16B/LL	(4gg\	.
16g/	.	.
16d/	.	.
16g/JJ	.	.
16B/LL	8ddn\)	.
16g/	.	.
16d/	8r	.
16g/JJ	.	.
=51	=51	=51
16A/LL	(8.cc\L	f
16f#/	.	.
16c/	.	.
16f#/JJ	32b\LL	.
.	32cc\JJJ	.
16A/LL	8dd\L)	.
16f#/	.	.
16c/	8cc\J	.
16f#/JJ)	.	.
4G/ 4g/	(16b\LL	.
.	16g\	.
.	16cc\	.
.	16a\JJ	.
4r	16dd\LL	.
.	16b\	.
.	16ee\	.
.	16cc\JJ	.
*clefF4	*	*
=52	=52	=52
(16GG\LL	4dd\ 4ffn\)	.
16G\	.	.
16F#\	.	.
16G\JJ	.	.
16A\LL	4ff\ 4ddd\	.
16G\	.	.
16F#\	.	.
16G\JJ)	.	.
4GG/	(16ee\LL	.
.	16cc\	.
.	16ff\	.
.	16dd\JJ	.
4r	16gg\LL	.
.	16ee\	.
.	16aa\	.
.	16ff\JJ	.
=53	=53	=53
(16GG\LL	4ee\ 4gg\)	.
16G\	.	.
16F#\	.	.
16G\JJ	.	.
16A\LL	4ee\ 4ccc\	.
16G\	.	.
16F#\	.	.
16G\JJ	.	.
4GG/)	(16b\LL	p
.	16g\	.
.	16cc\	.
.	16a\JJ	.
4r	16dd\LL	.
.	16b\	.
.	16ee\	.
.	16cc\JJ	.
*clefG2	*	*
=54	=54	=54
(16G/LL	4dd\ 4ff\)	.
16g/	.	.
16f#/	.	.
16g/JJ	.	.
16a/LL	4ff\ 4ddd\	.
16g/	.	.
16f#/	.	.
16g/JJ	.	.
4G/)	(16ee\LL	.
.	16cc\	.
.	16ff\	.
.	16dd\JJ	.
4r	16gg\LL	.
.	16ee\	.
.	16aa\	.
.	16ff\JJ	.
=55	=55	=55
(16G/LL	4ee\ 4gg\)	.
16g/	.	.
16f#/	.	.
16g/JJ	.	.
16a/LL	4ee\ 4ccc\	.
16g/	.	.
16f#/	.	.
16g/JJ	.	.
4G/)	16dd'\ 16bb'\LL	.
.	(16gg\	f
.	16ff#\	.
.	16gg\JJ	.
4r	16ccc\LL	.
.	16gg\	.
.	16ee\	.
.	16cc\JJ)	.
*clefF4	*	*
=56	=56	=56
16r	(16gg'\LL	.
(16G\LL	16g\	.
16F#\	16f#\	.
16G\JJ	16g\JJ	.
16c\LL	16cc/LL	.
16G\	16g/	.
16E\	16e/	.
16C\JJ	16c/JJ	.
4GG/)	(16g'/LL)	.
.	16G/	.
.	16A/	.
.	16B/JJ	.
4r	16c/LL	.
.	16d/	.
.	16e/	.
.	16f#/JJ	.
=57	=57	=57
1r	16g\LL	.
.	16a\	.
.	16b\	.
.	16cc\JJ	.
.	16dd\LL	.
.	16ee\	.
.	16ff#\	.
.	16gg\JJ	.
.	16gg#\LL	.
.	16aa\)	.
.	16ffn'\	.
.	(16dd'\JJ	.
.	16ee\LL	.
.	16ff\)	.
.	16dd'\	.
.	16b'\JJ	.
=58	=58	=58
(16C\LL	4e/ 4g/ 4cc/	.
16c\	.	.
16B\	.	.
16c\JJ	.	.
8C/)	8r	.
8r	(16cc\LL	.
.	16b\JJ	.
2r	16dd\LL	.
.	16cc\	.
.	16ee\	.
.	16dd\JJ	.
.	16ff\LL	.
.	16ee\	.
.	16gg\	.
.	16ff\JJ)	.
=59	=59	=59
4FF/ 4F/	4a\ 4dd\ 4ff\ 4aa\	.
4r	(16gg\LL	.
.	16ff\	.
.	16ee\	.
.	16dd\JJ	.
8r	16cc\LL	.
.	16b\	.
(8E\L	16cc\	.
.	(16ee\JJ)	.
8F\	16dd\LL	.
.	16ff\)	.
8G\J)	(16b\	.
.	16dd\JJ)	.
=60	=60	=60
(16C\LL	4e/ 4g/ 4cc/	.
16c\	.	.
16B\	.	.
16c\JJ	.	.
8C/)	8r	.
8r	(16cc\LL	.
.	16b\JJ	.
2r	16dd\LL	.
.	16cc\	.
.	16ee\	.
.	16dd\JJ	.
.	16ff\LL	.
.	16ee\	.
.	16gg\	.
.	16ff\JJ)	.
=61	=61	=61
4FF/ 4F/	4a\ 4dd\ 4ff\ 4aa\	.
4r	(16gg\LL	.
.	16ff\	.
.	16ee\	.
.	16dd\JJ	.
8r	16cc\LL	.
.	16b\	.
(8E\L	16cc\	.
.	(16ee\JJ)	.
8F\	16dd\LL	.
.	16ff\)	.
8G\J)	16b\	.
.	16dd\JJ	.
*clefG2	*	*
=62	=62	=62
16c/LL	8cc\L	.
16g/	.	.
.	(32ddQ/	.
16e/	(16cc\L)	.
16g/JJ	16b\JJ	.
16c/LL	8cc\L	.
16g/	.	.
16e/	8gg\J)	.
16g/JJ	.	.
16B-/LL	(4ff\	.
16g/	.	.
16c/	.	.
16g/JJ	.	.
16B-/LL	8ee\)	.
16g/	.	.
16c/	8r	.
16g/JJ	.	.
=63	=63	=63
16B-/LL	8r	.
16g/	.	.
16c/	8ee'\L	.
16g/JJ	.	.
16B-/LL	(8ccc\	.
16g/	.	.
16c/	8ee\J)	.
16g/JJ	.	.
16A/LL	(4gg\	.
16g/	.	.
16c/	.	.
16e/JJ	.	.
16A/LL	8ff\)	.
16f/	.	.
16c/	8r	.
16f/JJ	.	.
=64	=64	=64
16A/LL	8r	.
16f/	.	.
16c/	(8ff\L	p
16f/JJ	.	.
16A/LL	8gg\	.
16f/	.	.
16c/	8aa\J)	.
16f/JJ	.	.
*clefF4	*	*
16G\LL	(4bb-\	.
16e\	.	.
16B-\	.	.
16e\JJ	.	.
16G\LL	8cc#\)	.
16e\	.	.
16B-\	8r	.
16e\JJ	.	.
=65	=65	=65
16G\LL	8r	.
16e\	.	.
16c#\	(8ee\L	f
16e\JJ	.	.
16G\LL	8ff\	.
16e\	.	.
16c#\	8gg\J)	.
16e\JJ	.	.
16F\LL	(4aa-\	.
16d\	.	.
16A-\	.	.
16d\JJ	.	.
16F\LL	8bn\)	.
16d\	.	.
16A-\	8r	.
16d\JJ	.	.
=66	=66	=66
16E\LL	8r	.
16cn\	.	.
16G\	8cc\	.
16c\JJ	.	.
16E-\LL	(4.gg\	.
16c\	.	.
16G\	.	.
16c\JJ	.	.
16D\LL	.	.
16c\	.	.
16An\	8ff#\)	.
16c\JJ	.	.
16BB\LL	([4ffn\	.
16G\	.	.
16D\	.	.
16G\JJ	.	.
=67	=67	=67
16C\LL	8ff\L]	.
16c\	.	.
16G\	8ee\J)	.
16c\JJ	.	.
16F#\LL	(8.ee-\L	.
16c\	.	.
16A\	.	.
16c\JJ	32dd\LL	.
.	32ee-\JJJ	.
16G'\ 16B'\LL	4dd\)	.
(16G\	.	.
16F#\	.	.
16G\JJ)	.	.
(16FF#/LL	[4dd\ [4ff\ [4bb\	f
16GG/	.	.
16FF#/	.	.
16GG/JJ)	.	.
=68	=68	=68
4GGG/	8dd\] 8ff\] 8bb\L]	.
.	8een\ 8ccc\J	p
4r	8cc\ 8ee\L	.
.	8a\ 8ff#\J	.
.	16eeQ/LL	.
.	16ff#Q/JJ	.
(16F#\LL	4b\ 4gg\	.
16G\	.	.
16F#\	.	.
16G\JJ)	.	.
(16FF#/LL	[4d/ [4fn/ [4b/	f
16GG/	.	.
16FF#/	.	.
16GG/JJ)	.	.
=69	=69	=69
4GGG/	8d/] 8f/] 8b/L]	.
.	8e/ 8cc/J	p
4r	8c/ 8e/L	.
.	8A/ 8f#/J	.
.	16eQ/LL	.
.	16f#Q/JJ	.
2r	4g/	.
.	4r	.
=70	=70	=70
.	32f#Q/	.
2r	4g/	.
.	32f#Q/	.
.	4g/	.
.	(32eQ/LLL	.
.	32gQ/	.
.	32cc#Q/JJJ	.
16r	[2ee\)	f
(16AAA/LL	.	.
16CC#/	.	.
16EE/JJ	.	.
16AA/LL	.	.
16C#/	.	.
16E/	.	.
16A/JJ	.	.
=71	=71	=71
4AA/)	16ee\LL]	.
.	(16g\	.
.	16a\	.
.	16cc#\JJ	.
4r	16ee\LL	.
.	16gg\	.
.	16aa\	.
.	16ccc#\JJ	.
4AA\ 4A\	16eee\LL	.
.	16ddd\	.
.	16ccc#\	.
.	16bb-\JJ	.
8r	16aa\LL	.
.	16gg\	.
8A\ 8c#\	16ff\	.
.	16ee\JJ)	.
=72	=72	=72
4D\ 4d\	(16gg\LL	.
.	16ff\	.
.	16ee\	.
.	16ff\JJ	.
4r	16ee\LL	.
.	16ff\	.
.	16gg\	.
.	16ff\JJ)	.
.	(32eQ/	.
2r	4f/)	.
.	(32eQ/	.
.	4f/)	.
=73	=73	=73
.	(32dQ/LLL	.
.	32fQ/	.
.	32bnQ/JJJ	.
16r	[2dd\)	.
(16GG/LL	.	.
16BBn/	.	.
16D/JJ	.	.
16G\LL	.	.
16Bn\	.	.
16d\	.	.
16g\JJ	.	.
4G\)	16dd\LL]	.
.	(16f\	.
.	16g\	.
.	16bn\JJ	.
4r	16dd\LL	.
.	16ff\	.
.	16gg\	.
.	16bbn\JJ	.
=74	=74	=74
4GG/ 4G/	16ddd\LL	.
.	16ccc\	.
.	16bb\	.
.	16aa\JJ	.
8r	16gg\LL	.
.	16ff\	.
8G\ 8B\	16ee\	.
.	16dd\JJ	.
*clefG2	*	*
(16c/LL	4ee\)	.
16g/	.	.
16e/	.	.
16g/JJ	.	.
16c/LL	8gg'\L	p
16g/	.	.
16e/	8gg'\J	.
16g/JJ	.	.
=75	=75	=75
16c/LL	(8.aa\L	.
16a/	.	.
16f/	.	.
16a/JJ	16bb\Jk)	.
16c/LL	(16ddd\LL	.
16a/	16ccc\	.
16f/	16bb\	.
16a/JJ	16aa\JJ	.
16c/LL	8gg\)	.
16g/	.	.
16e/	8r	.
16g/JJ	.	.
16c/LL	(16gg\LL	.
16g/	16ee\	.
16e/	16gg\	.
16g/JJ	16ee\JJ)	.
=76	=76	=76
16c/LL	(8.aa\L	.
16a/	.	.
16f/	.	.
16a/JJ	16bb\Jk	.
16c/LL	16ddd\LL	.
16a/	16ccc\	.
16f/	16bb\	.
16a/JJ	16aa\JJ	.
4c/ 4e/)	8gg\)	.
.	(16eee\LL	.
.	16ddd\JJ	.
8r	16ccc\LL	.
.	16bb\	.
(8cc#\	16aa\	.
.	16gg\JJ)	.
=77	=77	=77
4dd\)	8ff\	.
.	16eeQ/LL	.
.	16ffQ/JJ	.
.	(16ddd\LL	f
.	16ccc\JJ	.
8r	16bb\LL	.
.	16aa\	.
(8b\	16gg\	.
.	16ff\JJ)	.
4ccn\)	8ee\	.
.	16ddQ/LL	.
.	16eeQ/JJ	.
.	(16ccc\LL	.
.	16bb\JJ	.
8r	16aa\LL	.
.	16gg\	.
(8a/	16ff\	.
.	16ee\JJ)	.
=78	=78	=78
4f/)	8dd\	.
.	16cc#Q/LL	.
.	16ddQ/JJ	.
.	(16aa\LL	.
.	16gg\JJ	.
8r	16ff\LL	.
.	16ee\	.
8f#/	16dd\	.
.	16ccn\JJ	.
(16G/LL	4b\)	.
16g/	.	.
16f#/	.	.
16g/JJ)	.	.
*clefF4	*	*
16E\LL	8g'/L	p
(16c\	.	.
16B\	8g'/J	.
16c\JJ	.	.
=79	=79	=79
16F\LL	(8.a/L	.
16c\	.	.
16B\	.	.
16c\JJ	16b/Jk)	.
16F\LL	(16dd\LL	.
16c\	16cc\	.
16B\	16b\	.
16c\JJ	16a\JJ	.
16E\LL	8g/)	.
16c\	.	.
16B\	8r	.
16c\JJ	.	.
16C\LL	(16g/LL	.
16c\	16e/	.
16B\	16g/	.
16c\JJ	16e/JJ)	.
=80	=80	=80
16F\LL	(8.a/L	.
16c\	.	.
16B\	.	.
16c\JJ	16b/Jk)	.
16F\LL	(16dd\LL	.
16c\	16cc\	.
16B\	16b\	.
16c\JJ)	16a\JJ	.
4E\	16g/LL)	f
.	(16cc/	.
.	16ee/	.
.	16dd/JJ	.
8r	16cc/LL	.
.	16b/	.
(8c#\	16a/	.
.	16g/JJ)	.
=81	=81	=81
4d\)	(16g/LL	.
.	16f#/)	.
.	16dd'/	.
.	16cc'/JJ	.
8r	16b'/LL	.
.	16a'/	.
(8B\	16g'/	.
.	16fn'/JJ	.
4cn\)	(16f/LL	.
.	16e/)	.
.	16cc'/	.
.	16b'/JJ	.
8r	16a'/LL	.
.	16g'/	.
8A\	16f'/	.
.	16e'/JJ	.
=82	=82	=82
(16FF/LL	8d/	.
16AA/	.	.
16D/	8r	.
16F/JJ)	.	.
4r	(16d/LL	.
.	16f/	.
.	16a/	.
.	16dd/JJ)	.
16GG'/LL	4r	.
16BB'/	.	.
16E'/	.	.
16G'/JJ	.	.
4r	16e'/LL	.
.	16g'/	.
.	16b'/	.
.	16ee'/JJ	.
=83	=83	=83
(16AA/LL	4r	.
16C/	.	.
16F/	.	.
16A/JJ)	.	.
4r	(16f/LL	.
.	16a/	.
.	16cc/	.
.	16ff/JJ)	.
16BB'\LL	4r	.
16D'\	.	.
16G'\	.	.
16B'\JJ	.	.
4r	16ddd'\LL	.
.	16bb'\	.
.	16gg\	.
.	16ff'\JJ	.
=84	=84	=84
4r	(16dd/LL	.
.	16b/	.
.	16g/	.
.	16f/JJ)	.
(16d\LL	4r	.
16B\	.	.
16G\	.	.
16F\JJ)	.	.
8E\L	(16cc\LL	.
.	16b\	.
8G\	16cc\	.
.	16ee\JJ	.
8B\	16dd\LL	.
.	16cc\	.
8G\J	16dd\	.
.	16ff\JJ	.
=85	=85	=85
*^	*	*
2.r	8c\L	16ee\LL	.
.	.	16dd\	.
.	8G\	16ee\	.
.	.	16gg\JJ	.
.	8d\	16ff\LL	.
.	.	16ee\	.
.	8G\J	16ff\	.
.	.	16aa\JJ	.
.	4e\	16gg\LL)	.
.	.	(16ccc\	.
.	.	16eee\	.
.	.	16bb\JJ	.
8r	8r	16ccc\LL	.
.	.	16gg\	.
8d/	8F\	16aa\	.
.	.	16ff\JJ)	.
=86	=86	=86	=86
(8c/L	4G\	(8ee\L	.
.	.	32ddQ/LLL	.
.	.	32eeQ/JJJ	.
8B/J)	.	(8dd\J)	.
4r	2.r	16r	.
.	.	(16gg\LL	p
.	.	16ff\	.
.	.	16ee\JJ)	.
*clefG2	*clefG2	*	*
(16f/LL	.	4dd\	.
16cc/	.	.	.
16b/	.	.	.
16cc/JJ	.	.	.
16g/LL	.	(8.ee\L	.
16cc/	.	.	.
16b/	.	.	.
16cc/JJ	.	32dd\LL	.
.	.	32ee\JJJ	.
*v	*v	*	*
=87	=87	=87
16a/LL	4.ff\	.
16cc/	.	.
16b/	.	.
16cc/JJ	.	.
16g/LL	.	.
16cc/	.	.
16b/	8ee\)	.
16cc/JJ	.	.
16f/LL	8dd'\L	.
16cc/	.	.
.	32cc#Q/	.
16b/	8dd'\	.
16cc/JJ	.	.
16g/LL	8ee'\	.
16cc/	.	.
.	32dd#Q/	.
16b/	8ee'\J	.
16cc/JJ	.	.
=88	=88	=88
.	32eeQ/LLL	.
.	32ggQ/JJJ	.
16a/LL	(4.ff\	.
16cc/	.	.
16b/	.	.
16cc/JJ	.	.
16g/LL	.	.
16cc/	.	.
16b/	8ee\)	.
16cc/JJ)	.	.
.	32cc#Q/	.
8r	4dd-\	.
(8f/ 8a/L	.	.
8e/ 8g#/	4r	.
8f/) 8a/J	.	.
=89	=89	=89
.	32gg#Q/	.
8r	4aa\	f
(8f/ 8a/L	.	.
8e/ 8g#/	4r	.
8f/) 8a/J	.	.
.	32bbQ/	.
8r	4ccc\	p
(8f/ 8a/L	.	.
8e/ 8g#/	4r	.
8f/) 8a/J	.	.
=90	=90	=90
.	32gg#Q/	.
1r	8aa\L	.
.	32bbQ/	.
.	8ccc\	.
.	32eeQ/	.
.	8ff\	.
.	32gg#Q/	.
.	8aa\J	.
.	32cc#Q/	.
.	8dd\L	.
.	32eeQ/	.
.	8ff\	.
.	32g#Q/	.
.	8a\	.
.	32bQ/	.
.	8ccn\J	.
*clefF4	*	*
=91	=91	=91
.	32gnQ/LLL	.
.	(32ccQ/	.
.	32eeQ/JJJ	.
(16G\LL	4gg\	f
16e\	.	.
16c\	.	.
16e\JJ	.	.
16G\LL	16ff\LL	.
16e\	16ee\	.
16c\	16dd\	.
16e\JJ	16cc\JJ)	.
16G\LL	2dd\	.
16f\	.	.
16B\	.	.
16f\JJ	.	.
16G\LL	.	.
16f\	.	.
16B\	.	.
16f\JJ	.	.
*clefG2	*	*
=92	=92	=92
.	32ccQ/LLL	.
.	32ddQ/JJJ	.
16c/LL	8cc\L	.
16g/	.	.
16e/	16ccc'\L	.
16g/JJ	16ccc'\JJ	.
8c/)	(16ccc\LL	.
.	16gg\	.
8r	16ee\	.
.	16cc\JJ	.
(16B/LL	8dd\L)	.
16g/	.	.
16d/	16ddd'\L	.
16g/JJ	16ddd'\JJ	.
8B/)	(16ddd\LL	.
.	16bb\	.
8r	16gg\	.
.	16dd\JJ)	.
=93	=93	=93
(16c/LL	8ee\L	.
16g/	.	.
16e/	16eee'\L	.
16g/JJ	16eee'\JJ	.
8c/)	(16eee\LL	.
.	16ccc\	.
8r	16gg\	.
.	16ee\JJ)	.
*clefF4	*	*
4F\ 4A\ 4d\	(16gg#\LL	.
.	16aa\)	.
.	16ff'\	.
.	16dd'\JJ	.
4G\ 4d\ 4f\	(16ee\LL	.
.	16ff\)	.
.	16dd'\	.
.	16b'\JJ	.
=94	=94	=94
8c\ 8e\	16cc'\LL	.
.	(16b\	.
8r	16cc\	.
.	16b\JJ	.
(16CC/LL	16cc/LL)	.
16C/	16g'/	.
16BB/	16e'/	.
16C/JJ	16c'/JJ	.
8BB/)	16d'/LL	.
.	(16cc#/	.
8r	16dd/	.
.	16cc#/JJ)	.
(16BB\LL	16dd/LL	.
16B\	16b'/	.
16A\	16g'/	.
16B\JJ	16d'/JJ	.
=95	=95	=95
8c\)	16e'/LL	.
.	(16dd#/	.
8r	16ee/	.
.	16dd#/JJ	.
(16CC/LL	16ee/LL)	.
16C/	16ccn'/	.
16BB/	16g'/	.
16C/JJ)	16e'/JJ	.
4FF/ 4AA/ 4D/	(16g#/LL	.
.	16a/)	.
.	16f'/	.
.	16dn'/JJ	.
4GG/ 4D/ 4F/	(16e/LL	.
.	16f/)	.
.	16d'/	.
.	16B'/JJ	.
=96	=96	=96
4C\ 4E\	16c'/LL	.
.	16cc/	.
.	16ee/	.
.	16ddn'/JJ	.
4r	16cc'/LL	.
.	16b'/	.
.	16a'/	.
.	16gn'/JJ	.
2r	16f'/LL	.
.	16e'/	.
.	16d'/	.
.	16c'/JJ	.
.	16B'/LL	.
.	16A'/	.
.	16G'/	.
.	16F#'/JJ	.
=97	=97	=97
*^	*	*
[2Fn/	4r	1r	.
.	4DD\ 4D\	.	.
(16F/LL]	4BBB\ 4BB\	.	.
16G/	.	.	.
16A/	.	.	.
16G/JJ	.	.	.
16B/LL	4GGG\ 4GG\	.	.
16A/	.	.	.
16G/	.	.	.
16F/JJ)	.	.	.
=98	=98	=98	=98
2D/ (2F/	(16CC\LL	2r	.
.	16C\	.	.
.	16BB\	.	.
.	16C\JJ	.	.
.	16BB\LL	.	.
.	16C\	.	.
.	16BB\	.	.
.	16C\JJ	.	.
16C/ 16E/)	4CC\)	16r	.
8.r	.	(16c/LL	p
.	.	16B/	.
.	.	16c/JJ)	.
4r	4r	16G'/LL	.
.	.	(16g/	p
.	.	16f#/	.
.	.	16g/JJ)	.
*v	*v	*	*
=99	=99	=99
1r	16e'\LL	.
.	(16cc\	.
.	16b\	.
.	16cc\JJ)	.
.	16g'\LL	.
.	(16ee\	.
.	16dd\	.
.	16ee\JJ)	.
.	(16cc'\LL	.
.	16cc\	f
.	16b\	.
.	16cc\JJ)	.
.	16ee'\LL	.
.	16cc'\	.
.	16gg'\	.
.	16ee'\JJ	.
=100	=100	=100
(16C\LL	4ccc\	.
16c\	.	.
16e\	.	.
16c\JJ	.	.
16G\LL	4ee\ 4gg\ 4ccc\	.
16c\	.	.
16E\	.	.
16G\JJ	.	.
4C/)	4ee\ 4gg\ 4ccc\	.
4r	4r	.
==	==	==
*-	*-	*-
!!!SMS: Alte Mozart-Ausgabe, Band 20, Breitkopf &amp; H&auml;rtel 1877-1883.
!!!ONB: Stich und Druck von Breitkopf &amp; H&auml;rtel in Leipzig
!!!ONB: Ausgegeben 1878
!!!ENC: Craig Stuart Sapp
!!!END: 2009/10/15/
!!!title: @{OTL}, K 279 (189d), @{OMV}
!!!hum2abc: --no-tempo -s 0.65 --spacing 2.0 -p "%gracespace  0 6.0 12.0"
